!!!OTL: 506. Wanderlied.
!!!COM: Volksweise
!!!ODT: 1826
!!!ARE: Europa, Mitteleuropa, Deutschland
!!!SCT: B0506
!!!TXL: @@DE
!!!YEM: Copyright 1995, estate of Helmut Schaffrath.
**kern	**text
*ICvox	*
*Ivox	*
*clefG2	*
*M3/4	*
*k[]	*
*C:	*
!LO:TX:a:t=Gemüthlich bewegt.	!
{8cL	Wohl-
8eJ	.
=1	=1
4g	-auf,
4g	noch
8aL	ge-
8gJ	.
=2	=2
8eL	-trun-
8gJ	.
4.cc}	-ken
{8e	den
=3	=3
8gL	fun-
8fJ	.
8fL	-keln-
8eJ	.
8fL	-den
8gJ	.
=4	=4
2e}	Wein!
{8cL	A-
8eJ	.
=5	=5
4g	-de
4g	nun
8aL	ihr,
8gJ	.
=6	=6
8eL	Lie-
8gJ	.
4.cc}	-ben,
{8e	ge-
=7	=7
8gL	-ſchie-
8fJ	.
8fL	-den
8eJ	.
8fL	muß
8gJ	.
=8	=8
2e}	ſein.
{4e	A-
=9	=9
8dL^	-de
8bJ	.
4.b	nun,
8b	ihr
=10	=10
8bL	Ber-
8aJ	.
4.a}	-ge,
{8a	du
=11	=11
8aL	vä-
8bJ	.
4cc	-ter-
4f#	-lich
=12	=12
2g}	Haus!
{4e	Es
=13	=13
8dL	treibt
8bJ	.
4b	in
4b	die
=14	=14
8bL	Fer-
8aJ	.
4.a}	-ne
{8a	mich
=15	=15
8aL	mäch-
8bJ	.
4cc	-tig
4f#	hin-
=16	=16
2g}	-aus!
{4g	A-
=17	=17
8aL	-de
8gJ	.
4.fn	nun,
8d	ihr
=18	=18
8eL	Ber-
8gJ	.
4.cc}	-ge,
{8e	du
=19	=19
8gL	vä-
8fJ	.
8fL	-ter-
8dJ	.
8fL	-lich
8gJ	.
=20	=20
2e}	Haus!
{4g	Es
=21	=21
8g/L	treibt
8eeJ	.
4.ee	in
8ee	die
=22	=22
8eeL	Fer-
8ddJ	.
4.dd}	-ne
{8dd	mich
=23	=23
8ddL	mäch-
8eeJ	.
4ff	-tig
4b	hin-
=24	=24
2cc;	-aus,
8r	.
8g	hin-
=25	=25
(<8g/L	-aus.
8eeJ	.
4cc;)}	.
!LO:TX:a:t=Einʒelne.	!
{8.g	Ju-
16g	-vi-
=26	=26
8.cc	-val-
16cc	-le-
4cc	-ra,
8.cc	ju-
16b	-vi-
=27	=27
8.a	-val-
16a	-le-
4a}	-ra,
{8.g	ju-
16g	-vi-
=28	=28
8.f	-val-
16e	-le-
8.f	-ral-
16e	-le-
8.f	-ral-
16a	-le-
=29	=29
2g}	-ra!
!LO:TX:a:t=Chor.	!
{8.g	ju-
16g	-vi-
=30	=30
8.ee	-val-
16ee	-le-
4ee	-ra,
8.dd	ju-
16dd	-vi-
=31	=31
8.cc	-val-
16cc	-le-
4cc}	-ra,
{8ee	ju-
8ee	-vi-
=32	=32
8.dd	-val-
16cc	-le-
8.dd	-ral-
16cc	-le-
8.dd	-ral-
16ee	-le-
=33	=33
2cc}	-ra!
!LO:TX:a:t=Einʒelne.	!
{8.g	Ju-
16g	-vi-
=34	=34
8.cc	-val-
16cc	-le-
4cc	-ra,
8.cc	ju-
16b	-vi-
=35	=35
8.a	-val-
16a	-le-
4a}	-ra,
{8.g	ju-
16g	-vi-
=36	=36
8.f	-val-
16e	-le-
8.f	-ral-
16e	-le-
8.f	-ral-
16a	-le-
=37	=37
2g}	-ra!
!LO:TX:a:t=Chor.	!
{8.g	ju-
16g	-vi-
=38	=38
8.ee	-val-
16ee	-le-
4ee	-ra,
8.dd	ju-
16dd	-vi-
=39	=39
8.cc	-val-
16cc	-le-
4cc}	-ra,
{8ee	ju-
8ee	-vi-
=40	=40
8.dd	-val-
16cc	-le-
8.dd	-ral-
16cc	-le-
8.dd	-ral-
16ee	-le-
=41	=41
2cc}	-ra!
==	==
!!!AGN: Wander - Lied
!!!GTL: Wanderlieder
!!!ONB: ESAC (Essen Associative Code) Database: BOEHME
!!!AMT: simple triple
!!!AIN: vox
!!!EED: Helmut Schaffrath
!!!EEV: 1.0
!!!RDF**kern: < = below
!!@@COMMENT:"Text von Juſtinus Kerner, gedichtet auf einer Reiſe nach Hamburg ʒu ſeinem Bruder 1809.
!!Das erʒählt ſeine Tochter in J. Kerners Jugendliebe und ſein Vaterhaus", nach Briefen und Er-
!!innerungen herausg. von Marie Niethammer, geb. Kerner. 1877. S. 37. Nach Hoffmann's Angabe
!!ʒuerſt in Kerner's Poet. Almanach für 1812. S. 108. - Die Mel. iſt eine ältere Voksweiſe.[...]"
!!@@END:
!!!Text: J. Kerner
!!!URL-scan: https://archive.org/details/BoehmeVtLieder1895/page/n405/mode/2up
!!!ENC: Anna Maria Matuszewska
!!!EEV: 2024/11/07
*-	*-
